packages/Snappmarket/src/CrossIcon/index.svg

<svg
  xmlns="http://www.w3.org/2000/svg"
  width="32pt"
  height="32pt"
  viewBox="0 0 32 32"
  version="1.1"
  id="CrossIcon"
>
  <path d="M 18.828125 16 L 31.414062 3.417969 C 32.195312 2.636719 32.195312 1.367188 31.414062 0.585938 C 30.632812 -0.195312 29.367188 -0.195312 28.582031 0.585938 L 16 13.171875 L 3.417969 0.585938 C 2.632812 -0.195312 1.367188 -0.195312 0.585938 0.585938 C -0.195312 1.367188 -0.195312 2.636719 0.585938 3.417969 L 13.171875 16 L 0.585938 28.582031 C -0.195312 29.363281 -0.195312 30.632812 0.585938 31.414062 C 0.976562 31.804688 1.488281 32 2 32 C 2.511719 32 3.023438 31.804688 3.417969 31.414062 L 16 18.828125 L 28.582031 31.414062 C 28.976562 31.804688 29.488281 32 30 32 C 30.511719 32 31.023438 31.804688 31.414062 31.414062 C 32.195312 30.632812 32.195312 29.363281 31.414062 28.582031 Z M 18.828125 16 " />
</svg>
w;

<svg xmlns="http://www.w3.org/2000/svg" viewBox="0 0 32 32">
  <path d="M18.828 16L31.414 3.418a2.004 2.004 0 000-2.832 2.004 2.004 0 00-2.832 0L16 13.172 3.418.586a2.004 2.004 0 00-2.832 0 2.004 2.004 0 000 2.832L13.172 16 .586 28.582A2.004 2.004 0 002 32a2.01 2.01 0 001.418-.586L16 18.828l12.582 12.586c.395.39.906.586 1.418.586a2.004 2.004 0 001.414-3.418zm0 0"/>
</svg>
